X:23
T:The Liverpool Hornpipe
S:John Moores Book 2
Z:Transcribed by John Gibbons 8th  May 2021
F:http://www.vwml.org/record/Moore2/4494/p20
K:D
M:C|
L:1/8
(AG) | FDFA defd | efge dcBA | GABG FGAF | EFGA GFED |
FDFA defd | efge dcBA | fgaf bgec | d2 d2 d2 :||
|: (AB/c/) | defd cdec |Bcde dcBA | GABG FGAF | EFGA GFED |
FDFA defd | efge dcBA | fgaf bgec | d2 d2 d2 :||
